X:1
T:Title
%%score { ( 1 3 4 ) | 2 }
L:1/8
M:6/8
K:G
V:1 treble nm="Grand Piano"
V:3 treble 
V:4 treble 
V:2 bass 
V:1
 z3 z2[Q:1/4=90] D | B>BB [DB][DA][DG] | [EA][EG]E D3 | DFF F3 | DGG G2 D | B>BB [DB][DA][DG] | %6
 [EA][EG]E D3 | DFG A2 B | [B,DG]3- [B,DG]2 d | d>dd dcB | [Fc]2 [Fc] [Fc]2 [Fc] | %11
 [Ac]>[Ac][Ac] [Ac][GB]A | d2 d d2 c | B>BB [DB][DA][DG] | [EA][EG]E D3 | DFG A2 B | %16
[M:5/8] [B,DG]-[B,DG]- [B,DG]3 |[M:3/4] d4 z2 | c6 | e3 A z2 | d6 | d>c B[DB] [DA][DG] | %22
 [EA][EG] E D3 | DF G A2 B |[M:5/8] [B,DG]-[B,DG]- [B,DG]3 |] %25
V:2
 z3 z2 [G,B,] | [G,D]>[G,D][G,D] [G,,G,][A,,F,][B,,G,] | [C,G,][C,G,][E,G,C] [G,B,]3 | %3
 [D,F,A,][D,A,D][D,A,D] [D,A,D]3 | [G,B,][G,B,D][G,B,D] [G,B,D]2 [G,B,] | %5
 [G,D]>[G,D][G,D] [G,,G,][A,,F,][B,,G,] | [C,G,][C,G,][E,G,C] [G,B,]3 | %7
 [D,F,A,][D,A,D][D,B,D] [D,CD]2 [D,D] | G,,3- G,,2[K:treble] [G,B,G] | %9
 [G,B,G]>[G,B,G][G,B,G] [G,B,G][K:bass][G,A,D][G,D] | [D,A,]2 [D,A,] [D,A,]2 [D,D] | %11
 [D,D]>[D,D][D,D] [D,D][D,D][K:treble][CDF] | [B,DG]2 [A,CF] [G,B,G]2 [G,A,D] | %13
 [G,D]>[G,D][G,D] [G,,G,][A,,F,][B,,G,] | [C,G,][C,G,][E,G,C] [G,B,]3 | %15
 [D,F,A,][D,A,D][D,B,D] [D,CD]2 [D,D] |[M:5/8] G,,-G,,- G,,3 | %17
[M:3/4][K:treble] [G,B,G][G,B,][K:bass] [G,B,] .[G,B,]3 | [D,A,][D,A,] [D,A,] .[D,A,]3 | %19
 [D,C][D,C] [D,C] .[D,C]3 | [G,B,G][G,B,] [G,B,] .[G,B,]3 | %21
 [G,B,G]>[K:bass][G,A,D] [G,D][G,,G,] [A,,F,][B,,G,] | [C,G,][C,G,] [E,G,C] [G,B,]3 | %23
 [D,F,A,][D,A,D] [D,B,D] [D,CD]2 [D,D] |[M:5/8] G,,-G,,- G,,3 |] %25
V:3
 x6 | x6 | x6 | x6 | x6 | x6 | x6 | x6 | x6 | x6 | x6 | x6 | x6 | x6 | x6 | x6 |[M:5/8] x5 | %17
[M:3/4] z G .G2 BG | FF F .F3 | FF FF- [FB]c | z G G .G3 | x6 | x6 | x6 |[M:5/8] x5 |] %25
V:4
 x6 | x6 | x6 | x6 | x6 | x6 | x6 | x6 | x6 | x6 | x6 | x6 | x6 | x6 | x6 | x6 |[M:5/8] x5 | %17
[M:3/4] z2 z .G3 | x6 | x6 | x6 | x6 | x6 | x6 |[M:5/8] x5 |] %25

